X:1
T:Mirjana, 87.87.77.87
T:Mirjana, 87.87.77.87
T:Ira David Sankey, 1893
T:Public Domain Courtesy of the Cyber Hymnal™
C:Ira David Sankey, 1893
Z:Public Domain
Z:Courtesy of the Cyber Hymnal™
%%score ( 1 2 ) ( 3 4 )
L:1/8
Q:1/4=110
M:4/4
K:G
V:1 treble 
V:2 treble 
V:3 bass 
V:4 bass 
V:1
 D>D | [DG]2 [DG]2 [DG]2 [FA]2 | [GB]2 [GB]4 [DB]>[Dc] | [Gd]2 [Gd]2 [DB]2 [^CG]2 | %4
 [DA]6 [DB]>[FA] | G2 [DG]2 [FA]2 [FA]2 | [GB]2 [Gd]4 G>[GA] | [GB]2 G2 [FA]3 G | G6 [DB]>[Dc] | %9
 [Gd]2 [Gd]2 [Gd]2 [Ge]2 | [GB]6 [DB]>[FA] | G2 G2 [GA]2 [GB]2 | [FA]6 [DB]>[FA] | %13
 G2 [DG]2 [FA]2 [FA]2 | [GB]2 [Gd]4 G>[GA] | [GB]2 G2 [FA]3 G | G6 |] %17
V:2
 D>D | x8 | x8 | x8 | x8 | G2 x6 | x6 G3/2 x/ | x2 G2 x G x2 | G6 x2 | x8 | x8 | G2 G2 x4 | x8 | %13
 G2 x6 | x6 G3/2 x/ | x2 G2 x G x2 | G6 |] %17
V:3
 [G,B,]>[G,B,] | [G,B,]2 [G,B,]2 [G,B,]2 [D,D]2 | [G,D]2 [G,D]4 G,>[G,A,] | %3
 [G,B,]2 [G,B,]2 G,2 [E,A,]2 | [D,F,]6 [D,D]>[D,C] | [G,B,]2 [G,B,]2 [D,D]2 [D,D]2 | %6
 [G,D]2 [G,B,]4 [B,,D]>[C,E] | [D,D]2 [D,B,]2 [D,C]3 [G,B,] | [G,B,]6 G,>[G,A,] | %9
 [G,B,]2 [G,B,]2 [G,B,]2 [G,C]2 | [G,D]6 [G,D]>[D,C] | [E,B,]2 [E,B,]2 [A,,^C]2 [A,,C]2 | %12
 [D,D]6 [D,D]>[D,C] | [G,B,]2 [G,B,]2 [D,D]2 [D,D]2 | [G,D]2 [G,B,]4 [B,,D]>[C,E] | %15
 [D,D]2 [D,B,]2 [D,C]3 [G,B,] | [G,B,]6 |] %17
V:4
 x2 | x8 | x6 G,3/2 x/ | x4 G,2 x2 | x8 | x8 | x8 | x8 | x6 G,3/2 x/ | x8 | x8 | x8 | x8 | x8 | %14
 x8 | x8 | x6 |] %17

